src/PC-Client/GUI/res/icon/phone.svg

<?xml version="1.0" encoding="UTF-8" standalone="no"?>
<svg
   xmlns:dc="http://purl.org/dc/elements/1.1/"
   xmlns:cc="http://creativecommons.org/ns#"
   xmlns:rdf="http://www.w3.org/1999/02/22-rdf-syntax-ns#"
   xmlns:svg="http://www.w3.org/2000/svg"
   xmlns="http://www.w3.org/2000/svg"
   xmlns:sodipodi="http://sodipodi.sourceforge.net/DTD/sodipodi-0.dtd"
   xmlns:inkscape="http://www.inkscape.org/namespaces/inkscape"
   viewBox="0 0 96 96"
   id="svg2"
   version="1.1"
   inkscape:version="0.48.4 r9939"
   width="100%"
   height="100%"
   sodipodi:docname="gnome-phone-manager.svg">
  <metadata
     id="metadata12">
    <rdf:RDF>
      <cc:Work
         rdf:about="">
        <dc:format>image/svg+xml</dc:format>
        <dc:type
           rdf:resource="http://purl.org/dc/dcmitype/StillImage" />
        <dc:title></dc:title>
      </cc:Work>
    </rdf:RDF>
  </metadata>
  <defs
     id="defs10" />
  <sodipodi:namedview
     pagecolor="#ffffff"
     bordercolor="#666666"
     borderopacity="1"
     objecttolerance="10"
     gridtolerance="10"
     guidetolerance="10"
     inkscape:pageopacity="0"
     inkscape:pageshadow="2"
     inkscape:window-width="1366"
     inkscape:window-height="709"
     id="namedview8"
     showgrid="true"
     inkscape:zoom="2.4583333"
     inkscape:cx="49.213784"
     inkscape:cy="17.453235"
     inkscape:window-x="0"
     inkscape:window-y="0"
     inkscape:window-maximized="1"
     inkscape:current-layer="svg2">
    <inkscape:grid
       type="xygrid"
       id="grid2989"
       empspacing="5"
       visible="true"
       enabled="true"
       snapvisiblegridlinesonly="true" />
  </sodipodi:namedview>
  <rect
     style="fill:#5aa9e1;fill-opacity:1;stroke:none"
     id="rect2991"
     width="28"
     height="60"
     x="33"
     y="19.00005"
     ry="4.1379313" />
  <path
     style="fill:#fdf6e3;fill-opacity:0.18875505;stroke:none"
     d="m 37.869638,71.966407 16,-48.116905 6,0 0,48.116905 z"
     id="path3761"
     inkscape:connector-curvature="0" />
  <rect
     style="fill:#002b36;fill-opacity:1;stroke:none"
     id="rect3763"
     width="8"
     height="5.2943654"
     x="43.752731"
     y="73.274231"
     ry="2.6471827" />
  <rect
     style="fill:#002b36;fill-opacity:1;stroke:none"
     id="rect3765"
     width="16"
     height="6"
     x="40.170734"
     y="17.092564"
     ry="2" />
  <g
     transform="matrix(2,0,0,2,0,-2008.7244)"
     id="g4"
     style="fill:#073642">
    <path
       style="line-height:normal;color:#000000;fill:#073642"
       d="M 18.625,8 C 17.190566,8 16,9.15925 16,10.59375 L 16,37.375 C 16,38.8094 17.190566,40 18.625,40 l 10.75,0 C 30.809434,40 32,38.8094 32,37.375 L 32,10.59375 C 32,9.15925 30.809434,8 29.375,8 l -10.75,0 z m 3.875,2 3,0 c 0.277,0 0.5,0.223 0.5,0.5 0,0.277 -0.223,0.5 -0.5,0.5 l -3,0 C 22.223,11 22,10.777 22,10.5 22,10.223 22.223,10 22.5,10 z m -4.5,2 12,0 0,24 -12,0 0,-24 z m 6,25 c 0.552285,0 1,0.447715 1,1 0,0.552285 -0.447715,1 -1,1 -0.552285,0 -1,-0.447715 -1,-1 0,-0.552285 0.447715,-1 1,-1 z"
       transform="translate(0,1004.3622)"
       id="path6"
       inkscape:connector-curvature="0" />
  </g>
</svg>

<?xml version="1.0" encoding="UTF-8" standalone="no"?>
<svg
   xmlns:dc="http://purl.org/dc/elements/1.1/"
   xmlns:cc="http://creativecommons.org/ns#"
   xmlns:rdf="http://www.w3.org/1999/02/22-rdf-syntax-ns#"
   xmlns:svg="http://www.w3.org/2000/svg"
   xmlns="http://www.w3.org/2000/svg"
   xmlns:sodipodi="http://sodipodi.sourceforge.net/DTD/sodipodi-0.dtd"
   xmlns:inkscape="http://www.inkscape.org/namespaces/inkscape"
   viewBox="0 0 48 48"
   id="svg2"
   version="1.1"
   inkscape:version="0.91 r"
   width="100%"
   height="100%"
   sodipodi:docname="stock_cell-phone.svg">
  <metadata
     id="metadata12">
    <rdf:RDF>
      <cc:Work
         rdf:about="">
        <dc:format>image/svg+xml</dc:format>
        <dc:type
           rdf:resource="http://purl.org/dc/dcmitype/StillImage" />
      </cc:Work>
    </rdf:RDF>
  </metadata>
  <defs
     id="defs10" />
  <sodipodi:namedview
     pagecolor="#ffffff"
     bordercolor="#666666"
     borderopacity="1"
     objecttolerance="10"
     gridtolerance="10"
     guidetolerance="10"
     inkscape:pageopacity="0"
     inkscape:pageshadow="2"
     inkscape:window-width="1366"
     inkscape:window-height="704"
     id="namedview8"
     showgrid="true"
     inkscape:zoom="13.906433"
     inkscape:cx="10.19344"
     inkscape:cy="24"
     inkscape:window-x="0"
     inkscape:window-y="27"
     inkscape:window-maximized="1"
     inkscape:current-layer="svg2">
    <inkscape:grid
       type="xygrid"
       id="grid2989" />
  </sodipodi:namedview>
  <rect
     style="fill:#5aa9e1;fill-opacity:1;stroke:none"
     id="rect2991"
     width="14"
     height="30.006729"
     x="17"
     y="8.9932718"
     ry="2.0694296" />
  <path
     style="fill:#fdf6e3;stroke:none;stroke-width:1px;stroke-linecap:butt;stroke-linejoin:miter;stroke-opacity:1;fill-opacity:0.18875502"
     d="m 20,37 8,-26 3,0 0,26 z"
     id="path3761"
     inkscape:connector-curvature="0" />
  <rect
     style="fill:#002b36;fill-opacity:1;stroke:none"
     id="rect3763"
     width="4"
     height="2"
     x="22"
     y="37"
     ry="1" />
  <rect
     style="fill:#002b36;fill-opacity:1;stroke:none"
     id="rect3765"
     width="8"
     height="3"
     x="20"
     y="9"
     ry="1" />
  <g
     transform="translate(0 -1004.3622)"
     id="g4"
     style="fill:#073642">
    <path
       style="fill:#073642;line-height:normal;color:#000"
       d="M 18.625 8 C 17.190566 8 16 9.15925 16 10.59375 L 16 37.375 C 16 38.8094 17.190566 40 18.625 40 L 29.375 40 C 30.809434 40 32 38.8094 32 37.375 L 32 10.59375 C 32 9.15925 30.809434 8 29.375 8 L 18.625 8 z M 22.5 10 L 25.5 10 C 25.777 10 26 10.223 26 10.5 C 26 10.777 25.777 11 25.5 11 L 22.5 11 C 22.223 11 22 10.777 22 10.5 C 22 10.223 22.223 10 22.5 10 z M 18 12 L 30 12 L 30 36 L 18 36 L 18 12 z M 24 37 C 24.552285 37 25 37.447715 25 38 C 25 38.552285 24.552285 39 24 39 C 23.447715 39 23 38.552285 23 38 C 23 37.447715 23.447715 37 24 37 z "
       transform="translate(0 1004.3622)"
       id="path6" />
  </g>
  <rect
     style="fill:#eee8d5;fill-opacity:0.14859438;stroke:none"
     id="rect3767"
     width="2"
     height="32"
     x="28"
     y="8" />
</svg>
